src/assets/icons/bug.svg

<svg data-token-name="bug" width="24" height="24" viewBox="0 0 24 24" xmlns="http://www.w3.org/2000/svg">
<path d="M10.5 2.75098C10.5 2.33676 10.1642 2.00098 9.75 2.00098C9.33579 2.00098 9 2.33676 9 2.75098V3.50309C9 4.13555 9.19571 4.7223 9.52988 5.20608C8.13703 5.68509 7.11506 6.96142 7.00909 8.48994H6.76245L6.75315 8.48992C5.51052 8.48479 4.50733 7.47327 4.51247 6.23064L4.51861 4.74504C4.52032 4.33083 4.18593 3.99366 3.77172 3.99195C3.35751 3.99024 3.02034 4.32463 3.01863 4.73884L3.01248 6.22444C3.00392 8.29549 4.6759 9.98135 6.74695 9.98991L6.76245 9.98994H7V11.4996H2.75C2.33579 11.4996 2 11.8354 2 12.2496C2 12.6638 2.33579 12.9996 2.75 12.9996H7V14.9919H6.76245L6.74695 14.992C4.6759 15.0005 3.00392 16.6864 3.01248 18.7574L3.01863 20.243C3.02034 20.6572 3.35751 20.9916 3.77172 20.9899C4.18593 20.9882 4.52032 20.651 4.51861 20.2368L4.51247 18.7512C4.50733 17.5086 5.51052 16.4971 6.75315 16.492L6.76245 16.4919H7.22633C7.86093 18.5247 9.75816 20.0001 12 20.0001C14.2418 20.0001 16.1391 18.5247 16.7737 16.4919H17.2375L17.2468 16.492C18.4895 16.4971 19.4927 17.5086 19.4875 18.7512L19.4814 20.2368C19.4797 20.651 19.8141 20.9882 20.2283 20.9899C20.6425 20.9916 20.9797 20.6572 20.9814 20.243L20.9875 18.7574C20.9961 16.6864 19.3241 15.0005 17.253 14.992L17.2375 14.9919H17V12.9996H21.2514C21.6656 12.9996 22.0014 12.6638 22.0014 12.2496C22.0014 11.8354 21.6656 11.4996 21.2514 11.4996H17V9.98994H17.2375L17.253 9.98991C19.3241 9.98135 20.9961 8.29549 20.9875 6.22444L20.9814 4.73884C20.9797 4.32463 20.6425 3.99024 20.2283 3.99195C19.8141 3.99366 19.4797 4.33083 19.4814 4.74504L19.4875 6.23064C19.4927 7.47327 18.4895 8.48479 17.2468 8.48992L17.2375 8.48994H16.9909C16.8849 6.96142 15.863 5.6851 14.4701 5.20608C14.8043 4.7223 15 4.13555 15 3.50309V2.75098C15 2.33676 14.6642 2.00098 14.25 2.00098C13.8358 2.00098 13.5 2.33676 13.5 2.75098V3.50309C13.5 4.33151 12.8284 5.00309 12 5.00309C11.1716 5.00309 10.5 4.33151 10.5 3.50309V2.75098ZM8.5 8.75311C8.5 7.51047 9.50736 6.50311 10.75 6.50311H13.25C14.4926 6.50311 15.5 7.51047 15.5 8.75311V15.0001C15.5 16.9331 13.933 18.5001 12 18.5001C10.067 18.5001 8.5 16.9331 8.5 15.0001V8.75311Z"/>
</svg>

<svg data-token-name="bug" xmlns="http://www.w3.org/2000/svg" width="40" height="40" viewBox="0 0 40 40" fill="none">
    <g transform="translate(8 8)">
        <path d="M20,0A20,20,0,1,1,0,20,20,20,0,0,1,20,0Z" transform="translate(-8 -8)" fill="none"/>
        <g transform="translate(15478 19354)">
            <rect width="24" height="24" transform="translate(-15478 -19354)" fill="none"/>
            <path d="M10.5,2.751a.75.75,0,0,0-1.5,0V3.5a2.986,2.986,0,0,0,.53,1.7A3.753,3.753,0,0,0,7.009,8.49H6.753A2.25,2.25,0,0,1,4.512,6.231l.006-1.486a.75.75,0,0,0-1.5-.006L3.012,6.224A3.75,3.75,0,0,0,6.747,9.99H7V11.5H2.75a.75.75,0,0,0,0,1.5H7v1.992H6.747a3.75,3.75,0,0,0-3.734,3.765l.006,1.486a.75.75,0,1,0,1.5-.006l-.006-1.486a2.25,2.25,0,0,1,2.241-2.259h.473a5,5,0,0,0,9.547,0h.473a2.25,2.25,0,0,1,2.241,2.259l-.006,1.486a.75.75,0,1,0,1.5.006l.006-1.486a3.75,3.75,0,0,0-3.734-3.765H17V13h4.251a.75.75,0,0,0,0-1.5H17V9.99h.253a3.75,3.75,0,0,0,3.734-3.765l-.006-1.486a.75.75,0,0,0-1.5.006l.006,1.486A2.25,2.25,0,0,1,17.247,8.49h-.256A3.753,3.753,0,0,0,14.47,5.206,2.986,2.986,0,0,0,15,3.5V2.751a.75.75,0,0,0-1.5,0V3.5a1.5,1.5,0,0,1-3,0Zm-2,6A2.25,2.25,0,0,1,10.75,6.5h2.5a2.25,2.25,0,0,1,2.25,2.25V15a3.5,3.5,0,0,1-7,0Z"
                  transform="translate(-15478 -19353.496)" fill="currentColor"/>
        </g>
    </g>
</svg>
